X:92
T:The Horvays of Tudor Street
R:reel
C: 2000, 2010 L.E. McCullough  
M:4/4
L:1/8
K:D
z6 FG|:~A3B AFAB|d~e3 fedB|~A3d BAdB|A~F3 GFED|
~A3B AFAB|d~e3 fdef|gBag fAgf|1 eAef d2FG:|2 eAef d2fg|]
a3f g3e|fedf e~A3|d~f3 gefg|aAgf eAfg|
a3f g3e|fedf eAef|gBag fAgf|1 eAef d2fg:|2 eAef d2FG|] 

